X:1
T:Title
%%score { 1 | 2 }
L:1/8
M:4/4
K:F
V:1 treble nm="Grand Piano"
V:2 bass 
V:1
 z4 z2 z[Q:1/4=100] c | cdcB A2 GF | [Ec][EB][EB][EB] [EB]3 [FA] | %3
 [EG][FA][GB][Ac] [Be]2 [Bd][Bd] | [Bd][Ac][Ac][GB] A3 c | cdcB A2 GF | %6
 [Ec][EB][EB][EB] [EB]3 [FA] | [EG][FA][GB][Ac] [Be]2 [Bd][DGB] |[M:7/8] [FA]>[FA][EA] [EG] F3 | %9
[M:1/8] C |[M:4/4] FA c>d c3 c | =Bc [_Ae]>[Ad] [=Ac]2 z2 | [Fd]2 [Fd]2 [Fc]2 [Fc]2 | %13
[M:7/8] [GB][GB][FA] [FA] [EG]3 |[M:1/8] C |[M:4/4] FA c>d c3 c | =Bc [_Ae]>[Ad] [=Ac]2 z2 | %17
 [Af]2 [Af]2 [Ac]2 [Ac]>[DGB] |[M:7/8] [CFA]>[CFA][CEA]>[B,EG] [A,CF]3 |] %19
V:2
 z4 z2 z [F,A,F] | [F,A,F][F,B,F][F,A,F][F,DF] [F,B,F]2 [F,B,F][F,A,C] | %2
 [C,G,][C,G,][C,G,][C,G,] [C,G,]3 [C,C] | [C,C][C,C][C,C][C,C] [C,C]2 [C,C][C,C] | %4
 [C,C][C,C][D,C][E,C] [F,CF]3 [F,A,F] | [F,A,F][F,B,F][F,A,F][F,DF] [F,B,F]2 [F,B,F][F,A,C] | %6
 [C,G,][C,G,][C,G,][C,G,] [C,G,]3 [C,C] | [C,C][C,C][C,C][C,C] [C,C]2 [C,C]B,, | %8
[M:7/8] [C,C]>[C,C][C,C] [C,B,] [F,A,C]3 |[M:1/8] [F,A,] | %10
[M:4/4] [F,A,C][F,CF] [F,A,F]>[F,B,F] [F,A,F]3 [F,A,F] | %11
 [F,_A,F][F,=A,F] [F,=B,]>[F,B,] [F,C]2 z2 | [B,,B,]2 [B,,B,]2 [F,A,]2 [F,A,]2 | %13
[M:7/8] [E,C][E,C][F,C] [F,C] [C,C]3 |[M:1/8] [F,A,] | %15
[M:4/4] [F,A,C][F,CF] [F,A,F]>[F,B,F] [F,A,F]3 [F,A,F] | %16
 [F,_A,F][F,=A,F] [F,=B,]>[F,B,] [F,C]2 z2 | [F,C]2 [F,C]2 [F,F]2 [F,F]>B,, | %18
[M:7/8] C,>C,C,>C, F,3 |] %19

